X:12006
T:Linehope Lope
T:Linhope Loup
R:Hornpipe
C:Trad.
S:Pete Coe
O:Northumbria England
M:4/4
L:1/8
Q:1/4=160
K:D
FG|"D"A2 f2 "G"G2 c2|"D"d3c "D"d>A F>A|"Em"G2E2 "Em"E>F G>A|"G"B2A2 "D"A>G F>G|
"D"A2 f2 "G"G2 c2|"D"d3c "D"d>A F>A|"Em"G2 E>F "G"G>A B>c|"D"d>A F>A "D"D2:|
fg|:"D"a2A2 "D"A2a2|"G"g2B2"G"B2d2|"A"c>d c>B "D"A>g f>e|"D"d>c d>e "D"f>e f>g|
"D"a2A2 "D"A2a2|"G"g2B2"G"B2d2|"A"c>d c>B "D"A>g f>e|1"D"d2 d>c "D"d>e f>g:|2 d6|]

